X:17
M:6/8
L:1/8
K:G
| AGE GED | GBd e2g | ege dBG | BAG GED | 
| BGG AGG | EDE G2A | Bee dBA | BAB GED | 

